symbols/web/manage_history/materialsymbolsrounded/manage_history_wght700gradN25_40px.svg

<svg xmlns="http://www.w3.org/2000/svg" height="40" width="40"><path d="M19.833 4.042q6.417 0 11.021 4.291 4.604 4.292 4.938 10.542v.625h-4.209v-.708q-.375-4.459-3.771-7.479-3.395-3.021-7.979-3.021-2.375 0-4.541.979Q13.125 10.25 11.5 12h1.792q.625 0 1.104.479.479.479.479 1.146 0 .667-.479 1.125-.479.458-1.104.458H7.208q-.916 0-1.52-.604-.605-.604-.605-1.479v-6q0-.625.459-1.104.458-.479 1.125-.479.666 0 1.145.479.48.479.48 1.104V9.25q2.25-2.458 5.229-3.833t6.312-1.375Zm2.334 20.333-3.042-2.958q-.292-.334-.458-.729-.167-.396-.167-.855v-6.541q0-.667.458-1.125.459-.459 1.125-.459.667 0 1.125.459.459.458.459 1.125v6.125l2.166 2.125Zm-2.542 11.542q-5.958-.042-10.208-3.792t-4.959-8.75q-.291-.917.188-1.75t1.396-1q.791-.083 1.458.271.667.354.917 1.104.791 3.833 3.416 6.375T18 31.25h.333L21 35.833q-.333.042-.667.063-.333.021-.708.021Zm9.542.916q-.584-.083-1.105-.375-.52-.291-.895-.75l-1.709.417q-.375.083-.729-.021-.354-.104-.521-.479l-.666-1.208q-.209-.334-.167-.729.042-.396.333-.646l1.417-1.25q-.167-.375-.146-.834.021-.458.146-.916l-1.417-1.25q-.291-.25-.333-.646-.042-.396.167-.729l.666-1.209q.167-.333.542-.479.375-.146.708-.021l1.709.417q.375-.417.895-.729.521-.313 1.105-.438l.291-1.875q.084-.375.396-.645.313-.271.688-.271h1.5q.333 0 .646.271.312.27.437.645l.292 1.875q.541.125 1.104.438.562.312.979.771l1.625-.459q.333-.041.729.063.396.104.563.437l.625 1.25q.208.334.146.688-.063.354-.355.646l-1.375 1.291q.167.375.146.855-.021.479-.146.854l1.417 1.25q.25.25.313.646.062.395-.146.729l-.667 1.208q-.167.375-.542.479-.375.104-.75.021l-1.583-.417q-.417.459-.979.75-.563.292-1.104.375l-.292 1.875q-.125.417-.437.667-.313.25-.646.25h-1.5q-.375 0-.688-.25-.312-.25-.396-.667Zm2.166-2.916q1.292 0 2.146-.834.854-.833.854-2.166 0-1.334-.854-2.188-.854-.854-2.146-.854-1.333 0-2.208.854-.875.854-.875 2.188 0 1.333.875 2.166.875.834 2.208.834Z"/></svg>

<svg xmlns="http://www.w3.org/2000/svg" height="40" width="40"><path d="M19.833 4.042Q26.25 4.042 30.854 8.333Q35.458 12.625 35.792 18.875Q35.792 19 35.792 19.167Q35.792 19.333 35.792 19.5H31.583Q31.583 19.333 31.583 19.146Q31.583 18.958 31.583 18.792Q31.208 14.333 27.812 11.313Q24.417 8.292 19.833 8.292Q17.458 8.292 15.292 9.271Q13.125 10.25 11.5 12H13.292Q13.917 12 14.396 12.479Q14.875 12.958 14.875 13.625Q14.875 14.292 14.396 14.75Q13.917 15.208 13.292 15.208H7.208Q6.292 15.208 5.688 14.604Q5.083 14 5.083 13.125V7.125Q5.083 6.5 5.542 6.021Q6 5.542 6.667 5.542Q7.333 5.542 7.812 6.021Q8.292 6.5 8.292 7.125V9.25Q10.542 6.792 13.521 5.417Q16.5 4.042 19.833 4.042ZM22.167 24.375 19.125 21.417Q18.833 21.083 18.667 20.688Q18.5 20.292 18.5 19.833V13.292Q18.5 12.625 18.958 12.167Q19.417 11.708 20.083 11.708Q20.75 11.708 21.208 12.167Q21.667 12.625 21.667 13.292V19.417L23.833 21.542ZM19.625 35.917Q13.667 35.875 9.417 32.125Q5.167 28.375 4.458 23.375Q4.167 22.458 4.646 21.625Q5.125 20.792 6.042 20.625Q6.833 20.542 7.5 20.896Q8.167 21.25 8.417 22Q9.208 25.833 11.833 28.375Q14.458 30.917 18 31.25H18.333L21 35.833Q20.667 35.875 20.333 35.896Q20 35.917 19.625 35.917ZM29.167 36.833Q28.583 36.75 28.062 36.458Q27.542 36.167 27.167 35.708L25.458 36.125Q25.083 36.208 24.729 36.104Q24.375 36 24.208 35.625L23.542 34.417Q23.333 34.083 23.375 33.688Q23.417 33.292 23.708 33.042L25.125 31.792Q24.958 31.417 24.979 30.958Q25 30.5 25.125 30.042L23.708 28.792Q23.417 28.542 23.375 28.146Q23.333 27.75 23.542 27.417L24.208 26.208Q24.375 25.875 24.75 25.729Q25.125 25.583 25.458 25.708L27.167 26.125Q27.542 25.708 28.062 25.396Q28.583 25.083 29.167 24.958L29.458 23.083Q29.542 22.708 29.854 22.438Q30.167 22.167 30.542 22.167H32.042Q32.375 22.167 32.688 22.438Q33 22.708 33.125 23.083L33.417 24.958Q33.958 25.083 34.521 25.396Q35.083 25.708 35.5 26.167L37.125 25.708Q37.458 25.667 37.854 25.771Q38.25 25.875 38.417 26.208L39.042 27.458Q39.25 27.792 39.188 28.146Q39.125 28.5 38.833 28.792L37.458 30.083Q37.625 30.458 37.604 30.938Q37.583 31.417 37.458 31.792L38.875 33.042Q39.125 33.292 39.188 33.688Q39.25 34.083 39.042 34.417L38.375 35.625Q38.208 36 37.833 36.104Q37.458 36.208 37.083 36.125L35.5 35.708Q35.083 36.167 34.521 36.458Q33.958 36.75 33.417 36.833L33.125 38.708Q33 39.125 32.688 39.375Q32.375 39.625 32.042 39.625H30.542Q30.167 39.625 29.854 39.375Q29.542 39.125 29.458 38.708ZM31.333 33.917Q32.625 33.917 33.479 33.083Q34.333 32.25 34.333 30.917Q34.333 29.583 33.479 28.729Q32.625 27.875 31.333 27.875Q30 27.875 29.125 28.729Q28.25 29.583 28.25 30.917Q28.25 32.25 29.125 33.083Q30 33.917 31.333 33.917Z"/></svg>
